X:1
T: Humors of Clare
C:
R:Jig
Q:180
K:Em
M:6/8
L:1/16
D6 F2D2F2|E2C2E2 G4E2|D2E2D2 F4G2|A2B2c2 B2G2E2|D6 F2D2F2|E2C2E2 G4E2|A2G2E2 c4A2|G2E2C2 C2D2E2|
D6 F2D2F2|E2C2E2 G4E2|D2E2D2 F4G2|A2B2c2 B2G2E2|D6 F2D2F2|E2C2E2 G4E2|A2G2E2 c4A2|G2E2C2 E2F2G2|
A4G2 F2E2F2|D2E2F2 G4E2|A4G2 F2E2F2|A2B2c2 B2G2E2|A4G2 F2E2F2|D2E2F2 G4E2|A2G2E2 c4A2|G2E2C2 C2D2E2|
A4G2 F2E2F2|D2E2F2 G4E2|A4G2 F2E2F2|A2B2c2 B2G2E2|A4G2 F2E2F2|D2E2F2 G4E2|A2G2E2 c4A2|G2E2C2 E2F2G2|
d2A2G2 F2D2F2|E2C2E2 G4E2|d2A2G2 F4G2|A2B2c2 B2G2E2|d2A2G2 F2D2F2|E2C2E2 G4E2|A2G2E2 c4A2|G2E2C2 C2D2E2|
d2A2G2 F2D2F2|E2C2E2 G4E2|d2A2G2 F4G2|A2B2c2 B2G2E2|d2A2G2 F2D2F2|E2C2E2 G4E2|A2G2E2 c4A2|G2E2C2 E2F2G2||
